svg/fluentui-system-icons/ic_fluent_dismiss_circle_20_filled.svg

<svg width="20" height="20" viewBox="0 0 20 20" fill="none" xmlns="http://www.w3.org/2000/svg">
<path d="M10 2C14.4183 2 18 5.58172 18 10C18 14.4183 14.4183 18 10 18C5.58172 18 2 14.4183 2 10C2 5.58172 5.58172 2 10 2ZM7.80943 7.11372C7.61456 6.97872 7.34514 6.99801 7.17157 7.17157L7.11372 7.24082C6.97872 7.43569 6.99801 7.70511 7.17157 7.87868L9.29289 10L7.17157 12.1213L7.11372 12.1906C6.97872 12.3854 6.99801 12.6549 7.17157 12.8284L7.24082 12.8863C7.43569 13.0213 7.70511 13.002 7.87868 12.8284L10 10.7071L12.1213 12.8284L12.1906 12.8863C12.3854 13.0213 12.6549 13.002 12.8284 12.8284L12.8863 12.7592C13.0213 12.5643 13.002 12.2949 12.8284 12.1213L10.7071 10L12.8284 7.87868L12.8863 7.80943C13.0213 7.61456 13.002 7.34514 12.8284 7.17157L12.7592 7.11372C12.5643 6.97872 12.2949 6.99801 12.1213 7.17157L10 9.29289L7.87868 7.17157L7.80943 7.11372Z" fill="#212121"/>
</svg>

<svg xmlns="http://www.w3.org/2000/svg" width="20" height="20"><path d="M10 2a8 8 0 1 1 0 16 8 8 0 0 1 0-16ZM7.81 7.114a.5.5 0 0 0-.638.058l-.058.069a.5.5 0 0 0 .058.638L9.292 10l-2.12 2.121-.058.07a.5.5 0 0 0 .058.637l.069.058a.5.5 0 0 0 .638-.058L10 10.708l2.121 2.12.07.058a.5.5 0 0 0 .637-.058l.058-.069a.5.5 0 0 0-.058-.638L10.708 10l2.12-2.121.058-.07a.5.5 0 0 0-.058-.637l-.069-.058a.5.5 0 0 0-.638.058L10 9.292l-2.121-2.12-.07-.058Z"/></svg>
